documentation/public/assets/images/chips-dos-and-donts-02.svg

<svg width="114" height="33" viewBox="0 0 114 33" fill="none" xmlns="http://www.w3.org/2000/svg">
<rect x="1" y="1" width="112" height="31" rx="3.5" fill="#F0F6FE"/>
<path fill-rule="evenodd" clip-rule="evenodd" d="M22.0697 12.4316C22.1999 12.5618 22.1999 12.7728 22.0697 12.903L14.5007 20.4721L10.9316 16.903C10.8014 16.7728 10.8014 16.5618 10.9316 16.4316C11.0618 16.3014 11.2728 16.3014 11.403 16.4316L14.5007 19.5292L21.5983 12.4316C21.7285 12.3014 21.9395 12.3014 22.0697 12.4316Z" fill="#194DCC" stroke="#194DCC" stroke-linecap="round"/>
<path d="M37.9261 14H36.6932C36.6203 13.6454 36.4927 13.3338 36.3104 13.0653C36.1314 12.7969 35.9126 12.5715 35.6541 12.3892C35.3989 12.2036 35.1155 12.0644 34.804 11.9716C34.4924 11.8788 34.1676 11.8324 33.8295 11.8324C33.2131 11.8324 32.6546 11.9882 32.1541 12.2997C31.657 12.6113 31.2609 13.0703 30.9659 13.6768C30.6742 14.2834 30.5284 15.0275 30.5284 15.9091C30.5284 16.7907 30.6742 17.5348 30.9659 18.1413C31.2609 18.7479 31.657 19.2069 32.1541 19.5185C32.6546 19.83 33.2131 19.9858 33.8295 19.9858C34.1676 19.9858 34.4924 19.9394 34.804 19.8466C35.1155 19.7538 35.3989 19.6162 35.6541 19.4339C35.9126 19.2483 36.1314 19.0213 36.3104 18.7528C36.4927 18.4811 36.6203 18.1695 36.6932 17.8182H37.9261C37.8333 18.3385 37.6643 18.8042 37.419 19.2152C37.1738 19.6262 36.8688 19.9759 36.5043 20.2642C36.1397 20.5492 35.7304 20.7663 35.2763 20.9155C34.8255 21.0646 34.3433 21.1392 33.8295 21.1392C32.9612 21.1392 32.1889 20.9271 31.5128 20.5028C30.8366 20.0786 30.3047 19.4754 29.9169 18.6932C29.5291 17.911 29.3352 16.983 29.3352 15.9091C29.3352 14.8352 29.5291 13.9072 29.9169 13.125C30.3047 12.3428 30.8366 11.7396 31.5128 11.3153C32.1889 10.8911 32.9612 10.679 33.8295 10.679C34.3433 10.679 34.8255 10.7536 35.2763 10.9027C35.7304 11.0518 36.1397 11.2706 36.5043 11.5589C36.8688 11.844 37.1738 12.192 37.419 12.603C37.6643 13.0107 37.8333 13.4763 37.9261 14ZM42.8617 21.1591C42.1723 21.1591 41.5674 20.995 41.0471 20.6669C40.53 20.3388 40.1257 19.8797 39.834 19.2898C39.5456 18.6998 39.4015 18.0104 39.4015 17.2216C39.4015 16.4261 39.5456 15.7318 39.834 15.1385C40.1257 14.5452 40.53 14.0845 41.0471 13.7564C41.5674 13.4283 42.1723 13.2642 42.8617 13.2642C43.5511 13.2642 44.1543 13.4283 44.6713 13.7564C45.1917 14.0845 45.5961 14.5452 45.8844 15.1385C46.1761 15.7318 46.3219 16.4261 46.3219 17.2216C46.3219 18.0104 46.1761 18.6998 45.8844 19.2898C45.5961 19.8797 45.1917 20.3388 44.6713 20.6669C44.1543 20.995 43.5511 21.1591 42.8617 21.1591ZM42.8617 20.1051C43.3854 20.1051 43.8162 19.9709 44.1543 19.7024C44.4924 19.4339 44.7426 19.081 44.905 18.6435C45.0674 18.206 45.1486 17.732 45.1486 17.2216C45.1486 16.7112 45.0674 16.2356 44.905 15.7947C44.7426 15.3539 44.4924 14.9976 44.1543 14.7259C43.8162 14.4541 43.3854 14.3182 42.8617 14.3182C42.338 14.3182 41.9071 14.4541 41.5691 14.7259C41.231 14.9976 40.9808 15.3539 40.8184 15.7947C40.656 16.2356 40.5748 16.7112 40.5748 17.2216C40.5748 17.732 40.656 18.206 40.8184 18.6435C40.9808 19.081 41.231 19.4339 41.5691 19.7024C41.9071 19.9709 42.338 20.1051 42.8617 20.1051ZM48.1129 21V13.3636H49.2464V14.5568H49.3459C49.505 14.1491 49.7618 13.8326 50.1165 13.6072C50.4711 13.3786 50.897 13.2642 51.3942 13.2642C51.898 13.2642 52.3172 13.3786 52.652 13.6072C52.9901 13.8326 53.2536 14.1491 53.4425 14.5568H53.522C53.7176 14.1624 54.0109 13.8492 54.402 13.6172C54.7931 13.3819 55.2621 13.2642 55.8089 13.2642C56.4917 13.2642 57.0502 13.478 57.4844 13.9055C57.9186 14.3298 58.1357 14.991 58.1357 15.8892V21H56.9624V15.8892C56.9624 15.3258 56.8082 14.9231 56.5 14.6811C56.1918 14.4392 55.8288 14.3182 55.4112 14.3182C54.8743 14.3182 54.4583 14.4806 54.1634 14.8054C53.8684 15.1269 53.7209 15.5346 53.7209 16.0284V21H52.5277V15.7699C52.5277 15.3357 52.3868 14.986 52.1051 14.7209C51.8234 14.4524 51.4605 14.3182 51.0163 14.3182C50.7114 14.3182 50.4264 14.3994 50.1612 14.5618C49.8994 14.7242 49.6873 14.9496 49.5249 15.2379C49.3658 15.523 49.2862 15.8527 49.2862 16.2273V21H48.1129ZM60.2809 23.8636V13.3636H61.4144V14.5767H61.5536C61.6398 14.4441 61.7591 14.2751 61.9116 14.0696C62.0674 13.8608 62.2894 13.6752 62.5778 13.5128C62.8694 13.3471 63.2638 13.2642 63.761 13.2642C64.404 13.2642 64.9708 13.425 65.4613 13.7464C65.9518 14.0679 66.3346 14.5237 66.6097 15.1136C66.8848 15.7036 67.0224 16.3996 67.0224 17.2017C67.0224 18.0104 66.8848 18.7114 66.6097 19.3047C66.3346 19.8946 65.9535 20.352 65.4663 20.6768C64.979 20.9983 64.4173 21.1591 63.7809 21.1591C63.2904 21.1591 62.8976 21.0779 62.6026 20.9155C62.3076 20.7498 62.0806 20.5625 61.9215 20.3537C61.7624 20.1416 61.6398 19.9659 61.5536 19.8267H61.4542V23.8636H60.2809ZM61.4343 17.1818C61.4343 17.7585 61.5188 18.2673 61.6879 18.7081C61.8569 19.1456 62.1038 19.4886 62.4286 19.7372C62.7534 19.9825 63.1512 20.1051 63.6218 20.1051C64.1123 20.1051 64.5217 19.9759 64.8498 19.7173C65.1812 19.4555 65.4298 19.1042 65.5955 18.6634C65.7646 18.2192 65.8491 17.7254 65.8491 17.1818C65.8491 16.6449 65.7662 16.161 65.6005 15.7301C65.4381 15.2959 65.1912 14.9529 64.8597 14.701C64.5316 14.4458 64.119 14.3182 63.6218 14.3182C63.1445 14.3182 62.7435 14.4392 62.4187 14.6811C62.0939 14.9197 61.8486 15.2545 61.6829 15.6854C61.5172 16.1129 61.4343 16.6117 61.4343 17.1818ZM69.9854 10.8182V21H68.8121V10.8182H69.9854ZM75.3361 21.1591C74.6003 21.1591 73.9656 20.9967 73.432 20.6719C72.9017 20.3438 72.4924 19.8864 72.204 19.2997C71.919 18.7098 71.7765 18.0237 71.7765 17.2415C71.7765 16.4593 71.919 15.7699 72.204 15.1733C72.4924 14.5734 72.8934 14.1061 73.4071 13.7713C73.9242 13.4332 74.5274 13.2642 75.2168 13.2642C75.6145 13.2642 76.0073 13.3305 76.3951 13.4631C76.7828 13.5956 77.1358 13.8111 77.454 14.1094C77.7722 14.4044 78.0257 14.7955 78.2147 15.2827C78.4036 15.7699 78.498 16.3698 78.498 17.0824V17.5795H72.6117V16.5653H77.3049C77.3049 16.1345 77.2187 15.75 77.0463 15.4119C76.8773 15.0739 76.6354 14.8071 76.3205 14.6115C76.0089 14.416 75.641 14.3182 75.2168 14.3182C74.7495 14.3182 74.3451 14.4342 74.0037 14.6662C73.6657 14.8949 73.4055 15.1932 73.2232 15.5611C73.0409 15.929 72.9498 16.3234 72.9498 16.7443V17.4205C72.9498 17.9972 73.0492 18.486 73.248 18.8871C73.4502 19.2848 73.7303 19.5881 74.0882 19.7969C74.4462 20.0024 74.8622 20.1051 75.3361 20.1051C75.6444 20.1051 75.9228 20.062 76.1713 19.9759C76.4232 19.8864 76.6403 19.7538 76.8226 19.5781C77.0049 19.3991 77.1458 19.1771 77.2452 18.9119L78.3787 19.2301C78.2594 19.6146 78.0589 19.9527 77.7772 20.2443C77.4954 20.5327 77.1474 20.758 76.7331 20.9205C76.3188 21.0795 75.8532 21.1591 75.3361 21.1591ZM83.6039 13.3636V14.358H79.6465V13.3636H83.6039ZM80.7999 11.5341H81.9732V18.8125C81.9732 19.1439 82.0212 19.3925 82.1174 19.5582C82.2168 19.7206 82.3427 19.83 82.4952 19.8864C82.651 19.9394 82.815 19.9659 82.9874 19.9659C83.1167 19.9659 83.2227 19.9593 83.3056 19.946C83.3884 19.9295 83.4547 19.9162 83.5044 19.9062L83.7431 20.9602C83.6635 20.9901 83.5525 21.0199 83.41 21.0497C83.2675 21.0829 83.0868 21.0994 82.8681 21.0994C82.5366 21.0994 82.2118 21.0282 81.8936 20.8857C81.5788 20.7431 81.3169 20.526 81.1081 20.2344C80.9026 19.9427 80.7999 19.5748 80.7999 19.1307V11.5341ZM88.4885 21.1591C87.7527 21.1591 87.118 20.9967 86.5843 20.6719C86.054 20.3438 85.6447 19.8864 85.3564 19.2997C85.0713 18.7098 84.9288 18.0237 84.9288 17.2415C84.9288 16.4593 85.0713 15.7699 85.3564 15.1733C85.6447 14.5734 86.0458 14.1061 86.5595 13.7713C87.0765 13.4332 87.6797 13.2642 88.3691 13.2642C88.7669 13.2642 89.1596 13.3305 89.5474 13.4631C89.9352 13.5956 90.2882 13.8111 90.6064 14.1094C90.9245 14.4044 91.1781 14.7955 91.367 15.2827C91.5559 15.7699 91.6504 16.3698 91.6504 17.0824V17.5795H85.764V16.5653H90.4572C90.4572 16.1345 90.371 15.75 90.1987 15.4119C90.0297 15.0739 89.7877 14.8071 89.4728 14.6115C89.1613 14.416 88.7934 14.3182 88.3691 14.3182C87.9018 14.3182 87.4975 14.4342 87.1561 14.6662C86.818 14.8949 86.5578 15.1932 86.3755 15.5611C86.1932 15.929 86.1021 16.3234 86.1021 16.7443V17.4205C86.1021 17.9972 86.2015 18.486 86.4004 18.8871C86.6026 19.2848 86.8826 19.5881 87.2406 19.7969C87.5985 20.0024 88.0145 20.1051 88.4885 20.1051C88.7967 20.1051 89.0751 20.062 89.3237 19.9759C89.5756 19.8864 89.7927 19.7538 89.975 19.5781C90.1573 19.3991 90.2981 19.1771 90.3975 18.9119L91.5311 19.2301C91.4118 19.6146 91.2112 19.9527 90.9295 20.2443C90.6478 20.5327 90.2998 20.758 89.8855 20.9205C89.4712 21.0795 89.0055 21.1591 88.4885 21.1591ZM96.3187 21.1591C95.6824 21.1591 95.1206 20.9983 94.6333 20.6768C94.1461 20.352 93.765 19.8946 93.4899 19.3047C93.2148 18.7114 93.0772 18.0104 93.0772 17.2017C93.0772 16.3996 93.2148 15.7036 93.4899 15.1136C93.765 14.5237 94.1478 14.0679 94.6383 13.7464C95.1288 13.425 95.6956 13.2642 96.3386 13.2642C96.8358 13.2642 97.2285 13.3471 97.5169 13.5128C97.8085 13.6752 98.0306 13.8608 98.1831 14.0696C98.3388 14.2751 98.4598 14.4441 98.546 14.5767H98.6454V10.8182H99.8187V21H98.6852V19.8267H98.546C98.4598 19.9659 98.3372 20.1416 98.1781 20.3537C98.019 20.5625 97.792 20.7498 97.497 20.9155C97.202 21.0779 96.8092 21.1591 96.3187 21.1591ZM96.4778 20.1051C96.9484 20.1051 97.3462 19.9825 97.671 19.7372C97.9958 19.4886 98.2427 19.1456 98.4118 18.7081C98.5808 18.2673 98.6653 17.7585 98.6653 17.1818C98.6653 16.6117 98.5824 16.1129 98.4167 15.6854C98.251 15.2545 98.0057 14.9197 97.6809 14.6811C97.3561 14.4392 96.9551 14.3182 96.4778 14.3182C95.9806 14.3182 95.5663 14.4458 95.2349 14.701C94.9068 14.9529 94.6599 15.2959 94.4941 15.7301C94.3317 16.161 94.2505 16.6449 94.2505 17.1818C94.2505 17.7254 94.3334 18.2192 94.4991 18.6634C94.6681 19.1042 94.9167 19.4555 95.2449 19.7173C95.5763 19.9759 95.9873 20.1051 96.4778 20.1051Z" fill="#194DCC"/>
<rect x="1" y="1" width="112" height="31" rx="3.5" stroke="#0F67F5"/>
</svg>

<svg width="114" height="33" fill="none" xmlns="http://www.w3.org/2000/svg"><rect x="1" y="1" width="112" height="31" rx="3.5" fill="#F0F6FE"/><path fill-rule="evenodd" clip-rule="evenodd" d="M22.07 12.43c.13.13.13.34 0 .47l-7.57 7.57-3.57-3.57a.33.33 0 1 1 .47-.47l3.1 3.1 7.1-7.1a.33.33 0 0 1 .47 0Z" fill="#194DCC" stroke="#194DCC" stroke-linecap="round"/><path d="M37.93 14h-1.24a2.56 2.56 0 0 0-1.04-1.61 2.79 2.79 0 0 0-.85-.42 3.4 3.4 0 0 0-2.65.33c-.5.31-.89.77-1.18 1.38-.3.6-.44 1.35-.44 2.23 0 .88.14 1.62.44 2.23.3.6.69 1.07 1.18 1.38a3.4 3.4 0 0 0 2.65.33c.32-.1.6-.23.85-.42a2.62 2.62 0 0 0 1.04-1.61h1.24a3.82 3.82 0 0 1-2.65 3.1 4.58 4.58 0 0 1-3.77-.42 4.37 4.37 0 0 1-1.6-1.8 6.2 6.2 0 0 1-.57-2.8c0-1.06.19-2 .58-2.78a4.27 4.27 0 0 1 3.91-2.45c.51 0 1 .08 1.45.23a3.95 3.95 0 0 1 2.14 1.7c.24.41.41.88.5 1.4Zm4.93 7.16a3.2 3.2 0 0 1-1.81-.5 3.34 3.34 0 0 1-1.22-1.37 4.66 4.66 0 0 1-.43-2.07c0-.8.15-1.49.43-2.08a3.3 3.3 0 0 1 3.03-1.88 3.3 3.3 0 0 1 3.02 1.87c.3.6.44 1.3.44 2.1a4.5 4.5 0 0 1-.44 2.06 3.3 3.3 0 0 1-1.2 1.38 3.3 3.3 0 0 1-1.82.49Zm0-1.05c.53 0 .96-.14 1.3-.4.33-.28.58-.63.75-1.07a4.25 4.25 0 0 0 0-2.85 2.4 2.4 0 0 0-.76-1.06 2 2 0 0 0-1.29-.41 2 2 0 0 0-1.3.4 2.4 2.4 0 0 0-.74 1.07 4.1 4.1 0 0 0-.25 1.43c0 .51.09.99.25 1.42.16.44.41.8.75 1.06.34.27.77.4 1.3.4Zm5.25.89v-7.64h1.14v1.2h.1c.16-.41.41-.73.77-.95a2.3 2.3 0 0 1 1.27-.35c.5 0 .93.12 1.26.35.34.22.6.54.8.95h.07c.2-.4.5-.71.88-.94.4-.24.86-.36 1.4-.36.7 0 1.25.22 1.68.65.44.42.66 1.08.66 1.98V21h-1.18v-5.11c0-.56-.15-.97-.46-1.2-.3-.25-.67-.37-1.09-.37-.54 0-.95.16-1.25.49-.3.32-.44.72-.44 1.22V21h-1.2v-5.23c0-.43-.13-.78-.41-1.05-.29-.27-.65-.4-1.1-.4-.3 0-.58.08-.85.24a1.9 1.9 0 0 0-.64.68 2 2 0 0 0-.23.99V21H48.1Zm12.17 2.86v-10.5h1.13v1.22h.14l.36-.51c.16-.2.38-.4.67-.56.29-.16.68-.25 1.18-.25a3.03 3.03 0 0 1 2.85 1.85c.27.6.41 1.29.41 2.1 0 .8-.14 1.5-.41 2.1a2.99 2.99 0 0 1-2.83 1.85 2.5 2.5 0 0 1-1.18-.24c-.3-.17-.52-.36-.68-.57a7.53 7.53 0 0 1-.37-.52h-.1v4.03h-1.17Zm1.15-6.68c0 .58.09 1.09.26 1.53.17.44.41.78.74 1.03.32.24.72.37 1.2.37s.9-.13 1.22-.4c.33-.25.58-.6.75-1.05a4.3 4.3 0 0 0 0-2.93c-.16-.43-.4-.78-.74-1.03a1.96 1.96 0 0 0-1.24-.38 1.96 1.96 0 0 0-1.94 1.37 4.2 4.2 0 0 0-.25 1.5ZM70 10.82V21h-1.2V10.82H70Zm5.35 10.34a3.27 3.27 0 0 1-3.13-1.86 4.68 4.68 0 0 1-.43-2.06c0-.78.14-1.47.42-2.07.3-.6.7-1.06 1.2-1.4a3.62 3.62 0 0 1 2.99-.3 2.92 2.92 0 0 1 1.82 1.81 5 5 0 0 1 .29 1.8v.5H72.6v-1.01h4.7c0-.44-.1-.82-.26-1.16a1.95 1.95 0 0 0-1.83-1.1 2.2 2.2 0 0 0-2 1.26c-.18.36-.27.75-.27 1.17v.68c0 .58.1 1.07.3 1.47.2.4.48.7.84.9.36.21.77.32 1.25.32.3 0 .58-.05.83-.13.25-.1.47-.23.65-.4.18-.18.33-.4.43-.67l1.13.32a2.73 2.73 0 0 1-1.65 1.69c-.41.16-.88.24-1.4.24Zm8.26-7.8v1h-3.95v-1h3.95Zm-2.8-1.83h1.17v7.28c0 .33.05.58.15.75.1.16.22.27.38.33.15.05.31.08.49.08a2.07 2.07 0 0 0 .51-.06l.24 1.05a2.38 2.38 0 0 1-.87.14c-.33 0-.66-.07-.98-.21a1.94 1.94 0 0 1-.78-.66 1.9 1.9 0 0 1-.31-1.1v-7.6Zm7.69 9.63a3.27 3.27 0 0 1-3.13-1.86 4.68 4.68 0 0 1-.43-2.06c0-.78.14-1.47.43-2.07a3.23 3.23 0 0 1 3.01-1.9c.4 0 .79.06 1.18.2a2.92 2.92 0 0 1 1.82 1.81 5 5 0 0 1 .28 1.8v.5h-5.89v-1.01h4.7c0-.44-.09-.82-.26-1.16a1.95 1.95 0 0 0-1.83-1.1c-.47 0-.87.12-1.21.36-.34.22-.6.52-.78.9-.19.36-.28.75-.28 1.17v.68c0 .58.1 1.07.3 1.47.2.4.48.7.84.9a2.68 2.68 0 0 0 2.08.19c.26-.1.47-.23.66-.4.18-.18.32-.4.42-.67l1.13.32c-.12.38-.32.72-.6 1.01-.28.3-.63.52-1.04.68-.42.16-.88.24-1.4.24Zm7.83 0a2.99 2.99 0 0 1-2.83-1.86 4.86 4.86 0 0 1-.41-2.1c0-.8.13-1.5.41-2.09a3.03 3.03 0 0 1 2.85-1.85c.5 0 .89.09 1.18.25.29.17.51.35.66.56l.37.5h.1v-3.75h1.17V21H98.7v-1.17h-.14l-.37.52c-.16.21-.39.4-.68.57-.3.16-.7.24-1.18.24Zm.16-1.05a2 2 0 0 0 1.2-.37c.32-.25.56-.6.73-1.03.17-.44.26-.95.26-1.53 0-.57-.09-1.07-.25-1.5a1.96 1.96 0 0 0-1.94-1.37c-.5 0-.91.14-1.25.4-.32.24-.57.59-.74 1.02a4.1 4.1 0 0 0-.24 1.45c0 .55.08 1.04.25 1.48.17.44.42.8.74 1.06.34.26.75.39 1.24.39Z" fill="#194DCC"/><rect x="1" y="1" width="112" height="31" rx="3.5" stroke="#0F67F5"/></svg>
